X:308
T:Polska efter Bengt Håkansson
T:Upptäcknad av August Strömberg (SmM I:308)
R:Brännvinspolska
O:Jät, Småland
B:Småländsk Musiktradition
S:Bengt Håkansson
S:August Strömberg
M:2/4
L:1/8
K:A
a(g/f/) e(f/g/)|ac de|a(g/f/) e(f/g/)|ac d2|a(g/f/) e(f/g/)|ac de|a(g/f/) e(f/g/)|ac d2:|
|:A>c e>g|(g/f/)(a/f/) fe|ec cd|B^G A2|A>c e>g|(g/f/)(a/f/) fe|ec cd|B^G A2:|

